Newaita-dark/apps/64/com.github.freeeradicals.elements.svg

<svg height="64" viewBox="0 0 64 64" width="64" xmlns="http://www.w3.org/2000/svg" xmlns:xlink="http://www.w3.org/1999/xlink"><linearGradient id="a" gradientUnits="userSpaceOnUse" x1="31.75304" x2="31.75304" y1="56.067872" y2="58.71396000006"><stop offset="0" stop-opacity=".27451"/><stop offset="1" stop-opacity="0"/></linearGradient><linearGradient id="b"><stop offset="0" stop-opacity=".313726"/><stop offset=".222222" stop-opacity=".27451"/><stop offset="1" stop-opacity="0"/></linearGradient><radialGradient id="c" cx="450.908936" cy="189.579361" gradientTransform="matrix(.00000035 -.156265 -.281277 -.0000002 104.261296 127.190665)" gradientUnits="userSpaceOnUse" r="21.166656" xlink:href="#b"/><radialGradient id="d" cx="450.908936" cy="189.579361" gradientTransform="matrix(-.00000035 .156265 .281277 .0000002 -40.755227 -15.054958)" gradientUnits="userSpaceOnUse" r="21.166656" xlink:href="#b"/><radialGradient id="e" cx="450.908936" cy="189.579361" gradientTransform="matrix(-.00000035 -.156265 .281277 -.0000002 -40.755227 127.190665)" gradientUnits="userSpaceOnUse" r="21.166656" xlink:href="#b"/><radialGradient id="f" cx="450.908936" cy="189.579361" gradientTransform="matrix(.00000035 .156265 -.281277 .0000002 104.261293 -15.054959)" gradientUnits="userSpaceOnUse" r="21.166656" xlink:href="#b"/><linearGradient id="g" gradientUnits="userSpaceOnUse" x1="21.16869799994" x2="21.16869799994" y1="56.067868" y2="5.79221000013"><stop offset="0" stop-color="#42a5f5"/><stop offset="1" stop-color="#64b5f6"/></linearGradient><linearGradient id="h"><stop offset="0" stop-color="#bdbdbd"/><stop offset="1" stop-color="#e0e0e0"/></linearGradient><linearGradient id="i" gradientUnits="userSpaceOnUse" x1="21.168704" x2="21.168704" xlink:href="#h" y1="56.06789790428" y2="5.792224912"/><linearGradient id="j" gradientUnits="userSpaceOnUse" x1="47.629572" x2="47.629572" xlink:href="#h" y1="25.637863625" y2="8.438296"/><path d="m11.90625 55.871094h39.691406v2.941406h-39.691406zm0 0" fill="url(#a)"/><path d="m51.597656 56.066406h5.292969v-2.644531h-5.292969zm0 0" fill="url(#c)"/><path d="m11.90625 56.066406h-5.292969v2.648438h5.292969zm0 0" fill="url(#d)"/><path d="m11.90625 56.066406h-5.292969v-2.644531h5.292969zm0 0" fill="url(#e)"/><path d="m51.597656 56.066406h5.292969v2.648438h-5.292969zm0 0" fill="url(#f)"/><path d="m9.261719 5.792969h44.984375c1.460937 0 2.644531 1.183593 2.644531 2.644531v44.984375c0 1.460937-1.183594 2.644531-2.644531 2.644531h-44.984375c-1.460938 0-2.648438-1.183594-2.648438-2.644531v-44.984375c0-1.460938 1.1875-2.644531 2.648438-2.644531zm0 0" fill="url(#g)"/><path d="m9.261719 5.792969c-1.464844 0-2.648438 1.179687-2.648438 2.644531v.332031c0-1.464843 1.183594-2.648437 2.648438-2.648437h44.984375c1.464844 0 2.644531 1.183594 2.644531 2.648437v-.332031c0-1.464844-1.179687-2.644531-2.644531-2.644531zm0 0" fill="#e6e6e6" fill-opacity=".392157"/><path d="m9.261719 56.066406c-1.464844 0-2.648438-1.179687-2.648438-2.644531v-.332031c0 1.46875 1.183594 2.648437 2.648438 2.648437h44.984375c1.464844 0 2.644531-1.179687 2.644531-2.648437v.332031c0 1.464844-1.179687 2.644531-2.644531 2.644531zm0 0" fill-opacity=".196078"/><path d="m74.086675-168.660675h359.840637c11.686384 0 21.15423 9.467846 21.15423 21.15423v359.840637c0 11.686384-9.467846 21.154229-21.15423 21.154229h-359.840637c-11.686384 0-21.185477-9.467845-21.185477-21.154229v-359.840637c0-11.686384 9.499093-21.15423 21.185477-21.15423zm0 0" fill="none" stroke="#212121" stroke-linecap="round" stroke-width="3" transform="matrix(.125012 0 0 .125012 0 26.877566)"/><path d="m13.230469 28.285156c-.734375 0-1.324219.589844-1.324219 1.320313v19.847656c0 .734375.589844 1.324219 1.324219 1.324219h2.644531c.734375 0 1.324219-.589844 1.324219-1.324219v-7.9375h9.261719v7.9375c0 .734375.589843 1.324219 1.324218 1.324219h2.644532c.734374 0 1.324218-.589844 1.324218-1.324219v-19.847656c0-.730469-.589844-1.320313-1.324218-1.320313h-2.644532c-.734375 0-1.324218.589844-1.324218 1.320313v7.941406h-9.261719v-7.941406c0-.730469-.589844-1.320313-1.324219-1.320313zm0 0" fill="url(#i)"/><path d="m13.230469 28.285156c-.734375 0-1.324219.589844-1.324219 1.320313v.664062c0-.734375.589844-1.324219 1.324219-1.324219h2.644531c.734375 0 1.324219.589844 1.324219 1.324219v-.664062c0-.730469-.589844-1.320313-1.324219-1.320313zm14.554687 0c-.734375 0-1.324218.589844-1.324218 1.320313v.664062c0-.734375.589843-1.324219 1.324218-1.324219h2.644532c.734374 0 1.324218.589844 1.324218 1.324219v-.664062c0-.730469-.589844-1.320313-1.324218-1.320313zm-10.585937 9.261719v.660156h9.261719v-.660156zm0 0" fill="#fff"/><path d="m17.199219 41.515625v1.320313h9.261719v-1.320313zm-5.292969 7.9375v1.324219c0 .730468.589844 1.320312 1.324219 1.320312h2.644531c.734375 0 1.324219-.589844 1.324219-1.320312v-1.324219c0 .734375-.589844 1.324219-1.324219 1.324219h-2.644531c-.734375 0-1.324219-.589844-1.324219-1.324219zm14.554688 0v1.324219c0 .730468.589843 1.320312 1.324218 1.320312h2.644532c.734374 0 1.324218-.589844 1.324218-1.320312v-1.324219c0 .734375-.589844 1.324219-1.324218 1.324219h-2.644532c-.734375 0-1.324218-.589844-1.324218-1.324219zm0 0" fill-opacity=".235294"/><path d="m400.001193 855.154602c-22.202605 0-40.035549 17.832944-40.035549 39.91745v600.060839c0 22.202605 17.832944 40.035549 40.035549 40.035549h79.952999c22.202605 0 40.035549-17.832944 40.035549-40.035549v-239.977096h280.012645v239.977096c0 22.202605 17.832943 40.035549 40.035549 40.035549h79.952999c22.202605 0 40.035549-17.832944 40.035549-40.035549v-600.060839c0-22.084506-17.832944-39.91745-40.035549-39.91745h-79.952999c-22.202606 0-40.035549 17.832944-40.035549 39.91745v240.095195h-280.012645v-240.095195c0-22.084506-17.832944-39.91745-40.035549-39.91745zm0 0" fill="none" stroke="#212121" stroke-linecap="round" stroke-linejoin="round" stroke-width="11.338583" transform="scale(.0330761)"/><path d="m48.925781 9.585938c-.390625.007812-.757812.164062-1.035156.4375l-3.96875 3.96875c-.386719.378906-.542969.933593-.402344 1.457031.136719.523437.542969.933593 1.066407 1.070312.523437.136719 1.082031-.019531 1.457031-.40625l.945312-.945312-.703125 6.324219h-2.625c-.539062-.007813-1.042968.277343-1.316406.742187-.273438.46875-.273438 1.046875 0 1.511719.273438.46875.777344.753906 1.316406.746094h7.9375c.820313-.011719 1.480469-.679688 1.480469-1.5 0-.820313-.660156-1.488282-1.480469-1.5h-2.292968l1.140624-10.242188c.046876-.429688-.09375-.859375-.382812-1.175781-.292969-.320313-.707031-.496094-1.136719-.488281zm0 0" fill="url(#j)"/><path d="m48.925781 9.585938c-.390625.007812-.757812.164062-1.035156.4375l-3.96875 3.96875c-.351563.34375-.511719.839843-.429687 1.328124.054687-.3125.203124-.597656.429687-.820312l3.96875-3.96875c.277344-.273438.644531-.433594 1.035156-.4375.746094-.015625 1.386719.523438 1.507813 1.261719l.011718-.105469c.046876-.429688-.09375-.859375-.382812-1.175781-.292969-.320313-.707031-.496094-1.136719-.488281zm-1.9375 6.257812-.082031.082031-.621094 5.566407h-2.625c-.445312-.007813-.867187.1875-1.160156.523437-.289062.339844-.410156.789063-.335938 1.226563.125-.726563.757813-1.253907 1.496094-1.242188h2.625l.621094-5.566406.019531-.019532zm2.390625 5.648438-.074218.671874h.058593l.015625-.164062h2.21875c.722656.011719 1.332032.53125 1.457032 1.242188.070312-.433594-.046876-.875-.328126-1.210938-.277343-.335938-.691406-.53125-1.128906-.539062zm0 0" fill="#fff"/><path d="m50.40625 11.570312-1.101562 9.921876h.09375l1.046874-9.402344c.015626-.175782.003907-.351563-.039062-.519532zm-3.417969 3.597657-.945312.945312c-.371094.382813-.917969.539063-1.4375.410157-.515625-.128907-.925781-.523438-1.074219-1.035157-.195312.660157.089844 1.367188.683594 1.714844.59375.34375 1.347656.242187 1.828125-.25l.839843-.839844zm-4.789062 8.238281c-.132813.457031-.042969.953125.246093 1.332031.289063.378907.738282.597657 1.214844.59375h7.9375c.46875-.007812.90625-.234375 1.183594-.609375.277344-.378906.367188-.863281.234375-1.3125-.183594.632813-.757813 1.070313-1.417969 1.082032h-7.9375c-.675781.007812-1.273437-.433594-1.460937-1.085938zm0 0" fill-opacity=".235294"/><path d="m391.368876-138.319823c-3.124701.062494-6.061921 1.312375-8.280459 3.499666l-31.746968 31.746969c-3.093455 3.03096-4.343336 7.468036-3.218443 11.655137 1.093645 4.1871 4.343335 7.468036 8.530435 8.561682 4.1871 1.093645 8.655424-.156235 11.655137-3.24969l7.561778-7.561778-5.624463 50.588919h-20.997995c-4.312088-.062494-8.342953 2.218538-10.530244 5.936933-2.187291 3.749642-2.187291 8.374201 0 12.092596 2.187291 3.749642 6.218156 6.030674 10.530244 5.96818h63.493937c6.561873-.093741 11.842619-5.436981 11.842619-11.998854 0-6.561874-5.280746-11.905114-11.842619-11.998855h-18.341998l9.124128-81.929676c.374965-3.437172-.749928-6.874343-3.062207-9.405352-2.343526-2.562255-5.65571-3.968371-9.092882-3.905877zm0 0" fill="none" stroke="#212121" stroke-linecap="round" stroke-linejoin="round" stroke-width="3" transform="matrix(.125012 0 0 .125012 0 26.877566)"/></svg>

<?xml version="1.0" encoding="UTF-8"?>
<svg xmlns="http://www.w3.org/2000/svg" xmlns:xlink="http://www.w3.org/1999/xlink" width="64px" height="64px" viewBox="0 0 64 64" version="1.1">
<defs>
<linearGradient id="linear0" gradientUnits="userSpaceOnUse" x1="254" y1="233.5" x2="254" y2="254.666672" gradientTransform="matrix(0.125012,0,0,0.125012,-0.00000763012,26.87757)">
<stop offset="0" style="stop-color:rgb(0%,0%,0%);stop-opacity:0.27451;"/>
<stop offset="1" style="stop-color:rgb(0%,0%,0%);stop-opacity:0;"/>
</linearGradient>
<radialGradient id="radial0" gradientUnits="userSpaceOnUse" cx="450.908936" cy="189.579361" fx="450.908936" fy="189.579361" r="21.166656" gradientTransform="matrix(0.000000348341,-0.156265,-0.281277,-0.000000203077,104.261296,127.190665)">
<stop offset="0" style="stop-color:rgb(0%,0%,0%);stop-opacity:0.313726;"/>
<stop offset="0.222222" style="stop-color:rgb(0%,0%,0%);stop-opacity:0.27451;"/>
<stop offset="1" style="stop-color:rgb(0%,0%,0%);stop-opacity:0;"/>
</radialGradient>
<radialGradient id="radial1" gradientUnits="userSpaceOnUse" cx="450.908936" cy="189.579361" fx="450.908936" fy="189.579361" r="21.166656" gradientTransform="matrix(-0.000000348341,0.156265,0.281277,0.000000203077,-40.755227,-15.054958)">
<stop offset="0" style="stop-color:rgb(0%,0%,0%);stop-opacity:0.313726;"/>
<stop offset="0.222222" style="stop-color:rgb(0%,0%,0%);stop-opacity:0.27451;"/>
<stop offset="1" style="stop-color:rgb(0%,0%,0%);stop-opacity:0;"/>
</radialGradient>
<radialGradient id="radial2" gradientUnits="userSpaceOnUse" cx="450.908936" cy="189.579361" fx="450.908936" fy="189.579361" r="21.166656" gradientTransform="matrix(-0.000000348341,-0.156265,0.281277,-0.000000203077,-40.755227,127.190665)">
<stop offset="0" style="stop-color:rgb(0%,0%,0%);stop-opacity:0.313726;"/>
<stop offset="0.222222" style="stop-color:rgb(0%,0%,0%);stop-opacity:0.27451;"/>
<stop offset="1" style="stop-color:rgb(0%,0%,0%);stop-opacity:0;"/>
</radialGradient>
<radialGradient id="radial3" gradientUnits="userSpaceOnUse" cx="450.908936" cy="189.579361" fx="450.908936" fy="189.579361" r="21.166656" gradientTransform="matrix(0.000000348341,0.156265,-0.281277,0.000000203077,104.261293,-15.054959)">
<stop offset="0" style="stop-color:rgb(0%,0%,0%);stop-opacity:0.313726;"/>
<stop offset="0.222222" style="stop-color:rgb(0%,0%,0%);stop-opacity:0.27451;"/>
<stop offset="1" style="stop-color:rgb(0%,0%,0%);stop-opacity:0;"/>
</radialGradient>
<linearGradient id="linear1" gradientUnits="userSpaceOnUse" x1="169.333328" y1="233.5" x2="169.333328" y2="-168.666656" gradientTransform="matrix(0.125012,0,0,0.125012,0,26.877566)">
<stop offset="0" style="stop-color:rgb(25.882354%,64.705884%,96.078432%);stop-opacity:1;"/>
<stop offset="1" style="stop-color:rgb(39.215687%,70.980394%,96.470588%);stop-opacity:1;"/>
</linearGradient>
<linearGradient id="linear2" gradientUnits="userSpaceOnUse" x1="640" y1="1695.118164" x2="640" y2="175.118134" gradientTransform="matrix(0.0330761,0,0,0.0330761,0,0)">
<stop offset="0" style="stop-color:rgb(74.117649%,74.117649%,74.117649%);stop-opacity:1;"/>
<stop offset="1" style="stop-color:rgb(87.843138%,87.843138%,87.843138%);stop-opacity:1;"/>
</linearGradient>
<linearGradient id="linear3" gradientUnits="userSpaceOnUse" x1="381" y1="-9.916667" x2="381" y2="-147.5" gradientTransform="matrix(0.125012,0,0,0.125012,0,26.877566)">
<stop offset="0" style="stop-color:rgb(74.117649%,74.117649%,74.117649%);stop-opacity:1;"/>
<stop offset="1" style="stop-color:rgb(87.843138%,87.843138%,87.843138%);stop-opacity:1;"/>
</linearGradient>
</defs>
<g id="surface1">
<path style=" stroke:none;fill-rule:nonzero;fill:url(#linear0);" d="M 11.90625 55.871094 L 51.597656 55.871094 L 51.597656 58.8125 L 11.90625 58.8125 Z M 11.90625 55.871094 "/>
<path style=" stroke:none;fill-rule:nonzero;fill:url(#radial0);" d="M 51.597656 56.066406 L 56.890625 56.066406 L 56.890625 53.421875 L 51.597656 53.421875 Z M 51.597656 56.066406 "/>
<path style=" stroke:none;fill-rule:nonzero;fill:url(#radial1);" d="M 11.90625 56.066406 L 6.613281 56.066406 L 6.613281 58.714844 L 11.90625 58.714844 Z M 11.90625 56.066406 "/>
<path style=" stroke:none;fill-rule:nonzero;fill:url(#radial2);" d="M 11.90625 56.066406 L 6.613281 56.066406 L 6.613281 53.421875 L 11.90625 53.421875 Z M 11.90625 56.066406 "/>
<path style=" stroke:none;fill-rule:nonzero;fill:url(#radial3);" d="M 51.597656 56.066406 L 56.890625 56.066406 L 56.890625 58.714844 L 51.597656 58.714844 Z M 51.597656 56.066406 "/>
<path style=" stroke:none;fill-rule:nonzero;fill:url(#linear1);" d="M 9.261719 5.792969 L 54.246094 5.792969 C 55.707031 5.792969 56.890625 6.976562 56.890625 8.4375 L 56.890625 53.421875 C 56.890625 54.882812 55.707031 56.066406 54.246094 56.066406 L 9.261719 56.066406 C 7.800781 56.066406 6.613281 54.882812 6.613281 53.421875 L 6.613281 8.4375 C 6.613281 6.976562 7.800781 5.792969 9.261719 5.792969 Z M 9.261719 5.792969 "/>
<path style=" stroke:none;fill-rule:nonzero;fill:rgb(90.196079%,90.196079%,90.196079%);fill-opacity:0.392157;" d="M 9.261719 5.792969 C 7.796875 5.792969 6.613281 6.972656 6.613281 8.4375 L 6.613281 8.769531 C 6.613281 7.304688 7.796875 6.121094 9.261719 6.121094 L 54.246094 6.121094 C 55.710938 6.121094 56.890625 7.304688 56.890625 8.769531 L 56.890625 8.4375 C 56.890625 6.972656 55.710938 5.792969 54.246094 5.792969 Z M 9.261719 5.792969 "/>
<path style=" stroke:none;fill-rule:nonzero;fill:rgb(0%,0%,0%);fill-opacity:0.196078;" d="M 9.261719 56.066406 C 7.796875 56.066406 6.613281 54.886719 6.613281 53.421875 L 6.613281 53.089844 C 6.613281 54.558594 7.796875 55.738281 9.261719 55.738281 L 54.246094 55.738281 C 55.710938 55.738281 56.890625 54.558594 56.890625 53.089844 L 56.890625 53.421875 C 56.890625 54.886719 55.710938 56.066406 54.246094 56.066406 Z M 9.261719 56.066406 "/>
<path style="fill:none;stroke-width:3;stroke-linecap:round;stroke-linejoin:miter;stroke:rgb(12.941177%,12.941177%,12.941177%);stroke-opacity:1;stroke-miterlimit:4;" d="M 74.086675 -168.660675 L 433.927312 -168.660675 C 445.613696 -168.660675 455.081542 -159.192829 455.081542 -147.506445 L 455.081542 212.334192 C 455.081542 224.020576 445.613696 233.488421 433.927312 233.488421 L 74.086675 233.488421 C 62.400291 233.488421 52.901198 224.020576 52.901198 212.334192 L 52.901198 -147.506445 C 52.901198 -159.192829 62.400291 -168.660675 74.086675 -168.660675 Z M 74.086675 -168.660675 " transform="matrix(0.125012,0,0,0.125012,0,26.877566)"/>
<path style=" stroke:none;fill-rule:nonzero;fill:url(#linear2);" d="M 13.230469 28.285156 C 12.496094 28.285156 11.90625 28.875 11.90625 29.605469 L 11.90625 49.453125 C 11.90625 50.1875 12.496094 50.777344 13.230469 50.777344 L 15.875 50.777344 C 16.609375 50.777344 17.199219 50.1875 17.199219 49.453125 L 17.199219 41.515625 L 26.460938 41.515625 L 26.460938 49.453125 C 26.460938 50.1875 27.050781 50.777344 27.785156 50.777344 L 30.429688 50.777344 C 31.164062 50.777344 31.753906 50.1875 31.753906 49.453125 L 31.753906 29.605469 C 31.753906 28.875 31.164062 28.285156 30.429688 28.285156 L 27.785156 28.285156 C 27.050781 28.285156 26.460938 28.875 26.460938 29.605469 L 26.460938 37.546875 L 17.199219 37.546875 L 17.199219 29.605469 C 17.199219 28.875 16.609375 28.285156 15.875 28.285156 Z M 13.230469 28.285156 "/>
<path style=" stroke:none;fill-rule:nonzero;fill:rgb(100%,100%,100%);fill-opacity:1;" d="M 13.230469 28.285156 C 12.496094 28.285156 11.90625 28.875 11.90625 29.605469 L 11.90625 30.269531 C 11.90625 29.535156 12.496094 28.945312 13.230469 28.945312 L 15.875 28.945312 C 16.609375 28.945312 17.199219 29.535156 17.199219 30.269531 L 17.199219 29.605469 C 17.199219 28.875 16.609375 28.285156 15.875 28.285156 Z M 27.785156 28.285156 C 27.050781 28.285156 26.460938 28.875 26.460938 29.605469 L 26.460938 30.269531 C 26.460938 29.535156 27.050781 28.945312 27.785156 28.945312 L 30.429688 28.945312 C 31.164062 28.945312 31.753906 29.535156 31.753906 30.269531 L 31.753906 29.605469 C 31.753906 28.875 31.164062 28.285156 30.429688 28.285156 Z M 17.199219 37.546875 L 17.199219 38.207031 L 26.460938 38.207031 L 26.460938 37.546875 Z M 17.199219 37.546875 "/>
<path style=" stroke:none;fill-rule:nonzero;fill:rgb(0%,0%,0%);fill-opacity:0.235294;" d="M 17.199219 41.515625 L 17.199219 42.835938 L 26.460938 42.835938 L 26.460938 41.515625 Z M 11.90625 49.453125 L 11.90625 50.777344 C 11.90625 51.507812 12.496094 52.097656 13.230469 52.097656 L 15.875 52.097656 C 16.609375 52.097656 17.199219 51.507812 17.199219 50.777344 L 17.199219 49.453125 C 17.199219 50.1875 16.609375 50.777344 15.875 50.777344 L 13.230469 50.777344 C 12.496094 50.777344 11.90625 50.1875 11.90625 49.453125 Z M 26.460938 49.453125 L 26.460938 50.777344 C 26.460938 51.507812 27.050781 52.097656 27.785156 52.097656 L 30.429688 52.097656 C 31.164062 52.097656 31.753906 51.507812 31.753906 50.777344 L 31.753906 49.453125 C 31.753906 50.1875 31.164062 50.777344 30.429688 50.777344 L 27.785156 50.777344 C 27.050781 50.777344 26.460938 50.1875 26.460938 49.453125 Z M 26.460938 49.453125 "/>
<path style="fill:none;stroke-width:11.338583;stroke-linecap:round;stroke-linejoin:round;stroke:rgb(12.941177%,12.941177%,12.941177%);stroke-opacity:1;stroke-miterlimit:4;" d="M 400.001193 855.154602 C 377.798588 855.154602 359.965644 872.987546 359.965644 895.072052 L 359.965644 1495.132891 C 359.965644 1517.335496 377.798588 1535.16844 400.001193 1535.16844 L 479.954192 1535.16844 C 502.156797 1535.16844 519.989741 1517.335496 519.989741 1495.132891 L 519.989741 1255.155795 L 800.002386 1255.155795 L 800.002386 1495.132891 C 800.002386 1517.335496 817.835329 1535.16844 840.037935 1535.16844 L 919.990934 1535.16844 C 942.193539 1535.16844 960.026483 1517.335496 960.026483 1495.132891 L 960.026483 895.072052 C 960.026483 872.987546 942.193539 855.154602 919.990934 855.154602 L 840.037935 855.154602 C 817.835329 855.154602 800.002386 872.987546 800.002386 895.072052 L 800.002386 1135.167247 L 519.989741 1135.167247 L 519.989741 895.072052 C 519.989741 872.987546 502.156797 855.154602 479.954192 855.154602 Z M 400.001193 855.154602 " transform="matrix(0.0330761,0,0,0.0330761,0,0)"/>
<path style=" stroke:none;fill-rule:nonzero;fill:url(#linear3);" d="M 48.925781 9.585938 C 48.535156 9.59375 48.167969 9.75 47.890625 10.023438 L 43.921875 13.992188 C 43.535156 14.371094 43.378906 14.925781 43.519531 15.449219 C 43.65625 15.972656 44.0625 16.382812 44.585938 16.519531 C 45.109375 16.65625 45.667969 16.5 46.042969 16.113281 L 46.988281 15.167969 L 46.285156 21.492188 L 43.660156 21.492188 C 43.121094 21.484375 42.617188 21.769531 42.34375 22.234375 C 42.070312 22.703125 42.070312 23.28125 42.34375 23.746094 C 42.617188 24.214844 43.121094 24.5 43.660156 24.492188 L 51.597656 24.492188 C 52.417969 24.480469 53.078125 23.8125 53.078125 22.992188 C 53.078125 22.171875 52.417969 21.503906 51.597656 21.492188 L 49.304688 21.492188 L 50.445312 11.25 C 50.492188 10.820312 50.351562 10.390625 50.0625 10.074219 C 49.769531 9.753906 49.355469 9.578125 48.925781 9.585938 Z M 48.925781 9.585938 "/>
<path style=" stroke:none;fill-rule:nonzero;fill:rgb(100%,100%,100%);fill-opacity:1;" d="M 48.925781 9.585938 C 48.535156 9.59375 48.167969 9.75 47.890625 10.023438 L 43.921875 13.992188 C 43.570312 14.335938 43.410156 14.832031 43.492188 15.320312 C 43.546875 15.007812 43.695312 14.722656 43.921875 14.5 L 47.890625 10.53125 C 48.167969 10.257812 48.535156 10.097656 48.925781 10.09375 C 49.671875 10.078125 50.3125 10.617188 50.433594 11.355469 L 50.445312 11.25 C 50.492188 10.820312 50.351562 10.390625 50.0625 10.074219 C 49.769531 9.753906 49.355469 9.578125 48.925781 9.585938 Z M 46.988281 15.84375 L 46.90625 15.925781 L 46.285156 21.492188 L 43.660156 21.492188 C 43.214844 21.484375 42.792969 21.679688 42.5 22.015625 C 42.210938 22.355469 42.089844 22.804688 42.164062 23.242188 C 42.289062 22.515625 42.921875 21.988281 43.660156 22 L 46.285156 22 L 46.90625 16.433594 L 46.925781 16.414062 Z M 49.378906 21.492188 L 49.304688 22.164062 L 49.363281 22.164062 L 49.378906 22 L 51.597656 22 C 52.320312 22.011719 52.929688 22.53125 53.054688 23.242188 C 53.125 22.808594 53.007812 22.367188 52.726562 22.03125 C 52.449219 21.695312 52.035156 21.5 51.597656 21.492188 Z M 49.378906 21.492188 "/>
<path style=" stroke:none;fill-rule:nonzero;fill:rgb(0%,0%,0%);fill-opacity:0.235294;" d="M 50.40625 11.570312 L 49.304688 21.492188 L 49.398438 21.492188 L 50.445312 12.089844 C 50.460938 11.914062 50.449219 11.738281 50.40625 11.570312 Z M 46.988281 15.167969 L 46.042969 16.113281 C 45.671875 16.496094 45.125 16.652344 44.605469 16.523438 C 44.089844 16.394531 43.679688 16 43.53125 15.488281 C 43.335938 16.148438 43.621094 16.855469 44.214844 17.203125 C 44.808594 17.546875 45.5625 17.445312 46.042969 16.953125 L 46.882812 16.113281 Z M 42.199219 23.40625 C 42.066406 23.863281 42.15625 24.359375 42.445312 24.738281 C 42.734375 25.117188 43.183594 25.335938 43.660156 25.332031 L 51.597656 25.332031 C 52.066406 25.324219 52.503906 25.097656 52.78125 24.722656 C 53.058594 24.34375 53.148438 23.859375 53.015625 23.410156 C 52.832031 24.042969 52.257812 24.480469 51.597656 24.492188 L 43.660156 24.492188 C 42.984375 24.5 42.386719 24.058594 42.199219 23.40625 Z M 42.199219 23.40625 "/>
<path style="fill:none;stroke-width:3;stroke-linecap:round;stroke-linejoin:round;stroke:rgb(12.941177%,12.941177%,12.941177%);stroke-opacity:1;stroke-miterlimit:4;" d="M 391.368876 -138.319823 C 388.244175 -138.257329 385.306955 -137.007448 383.088417 -134.820157 L 351.341449 -103.073188 C 348.247994 -100.042228 346.998113 -95.605152 348.123006 -91.418051 C 349.216651 -87.230951 352.466341 -83.950015 356.653441 -82.856369 C 360.840541 -81.762724 365.308865 -83.012604 368.308578 -86.106059 L 375.870356 -93.667837 L 370.245893 -43.078918 L 349.247898 -43.078918 C 344.93581 -43.141412 340.904945 -40.86038 338.717654 -37.141985 C 336.530363 -33.392343 336.530363 -28.767784 338.717654 -25.049389 C 340.904945 -21.299747 344.93581 -19.018715 349.247898 -19.081209 L 412.741835 -19.081209 C 419.303708 -19.17495 424.584454 -24.51819 424.584454 -31.080063 C 424.584454 -37.641937 419.303708 -42.985177 412.741835 -43.078918 L 394.399837 -43.078918 L 403.523965 -125.008594 C 403.89893 -128.445766 402.774037 -131.882937 400.461758 -134.413946 C 398.118232 -136.976201 394.806048 -138.382317 391.368876 -138.319823 Z M 391.368876 -138.319823 " transform="matrix(0.125012,0,0,0.125012,0,26.877566)"/>
</g>
</svg>
